!!!OTL: WENN DIE HOFFNUNG NICHT WAER
!!!ARE: Europa, Mitteleuropa, Deutschland
!!!SCT: F0021
!!!YEM: Copyright 1995, estate of Helmut Schaffrath.
**kern
*ICvox
*Ivox
*M3/4
*k[b-]
*F:
{4c
=1
4f
4c
4A
=2
2F}
{4A
=3
4B-
4G
4c
=4
4.A
8r}
{8G
8G
=5
4A
4A
4Bn
=6
2c}
{4d
=7
4e
4d
8.Bn
16c
=8
4.c
8r}
{8.G
16G
=9
4G
4A
4B-
=10
2A}
{8.A
16A
=11
4A
4Bn
4c
=12
[2.Bn
=13
4Bn]
4r}
{8.c
16c
=14
4f
4c
4e-
=15
2d}
{8d
8d
=16
4c
4G
4B-
=17
2.A
=18
2r}
==
!!!AGN: Moral - Lied, Hoffnung
!!!ONB: ESAC (Essen Associative Code) Database: FINK
!!!AMT: simple triple
!!!AIN: vox
!!!EED: Helmut Schaffrath
!!!EEV: 1.0
*-
